X:1
T:St. Omer, SM
T:St. Omer, SM
T:Charles Sherwood Jekyll, 1889
T:Public Domain Courtesy of the Cyber Hymnal™
C:Charles Sherwood Jekyll, 1889
Z:Public Domain
Z:Courtesy of the Cyber Hymnal™
%%score ( 1 2 ) 3
L:1/8
Q:1/4=115
M:none
K:F
V:1 treble 
V:2 treble 
V:3 bass 
V:1
 F2 | [FA]2 [Fc]2 [Fd]2 [FA]2 | [Ec]6 [Gc]2 | [FA]2 [DB]2 [DF]2 [DG]2 | [EA]6 [EA]2 | %5
 [^FB]2 [FA]2 G2 [_EG]2 | [_EA]2 [CG]2 [D^F]2 [DG]2 | [CE]2 F2 [FB]2 [EG]2 | F6 |] %9
V:2
 F2 | x8 | x8 | x8 | x8 | x4 G2 x2 | x8 | x2 F2 x4 | F6 |] %9
V:3
 [F,A,]2 | [F,C]2 [A,,C]2 [B,,B,]2 [D,F,]2 | [C,G,]6 [E,G,]2 | [F,C]2 [G,B,]2 [D,A,]2 [B,,D]2 | %4
 [A,,^C]6 [A,C]2 | [D,D]2 [D,C]2 [_E,B,]2 [E,B,]2 | [C,C]2 [_E,G,]2 [D,A,]2 [B,,G,]2 | %7
 [B,,G,]2 [A,,C]2 [G,,D]2 [C,B,]2 | [F,,A,]6 |] %9

